dist/svgs/core-ui-icons/brand/cib-stackexchange.svg

<svg xmlns="http://www.w3.org/2000/svg" width="32" height="32" viewBox="0 0 32 32">
  <path d="M28.969 20.771v1.38c0 2.339-1.859 4.234-4.13 4.234h-1.208l-5.438 5.615v-5.615h-11.031c-2.271 0-4.13-1.896-4.13-4.24v-1.375zM3.031 13.953h25.766v5.302h-25.766zM3.031 7.094h25.766v5.307h-25.766zM24.766 0c2.245 0 4.031 1.896 4.031 4.24v1.375h-25.766v-1.375c0-2.344 1.865-4.24 4.135-4.24z"/>
</svg>

<svg xmlns="http://www.w3.org/2000/svg" viewBox="0 0 32 32"><path d="M28.969 20.771v1.38c0 2.339-1.859 4.234-4.13 4.234h-1.208L18.193 32v-5.615H7.162c-2.271 0-4.13-1.896-4.13-4.24V20.77zM3.031 13.953h25.766v5.302H3.031zm0-6.859h25.766v5.307H3.031zM24.766 0c2.245 0 4.031 1.896 4.031 4.24v1.375H3.031V4.24C3.031 1.896 4.896 0 7.166 0z"/></svg>
